X: 3050
T: Be Thou My Vision
R: waltz
M: 3/4
K: Amajor
|:E>F|A2 A2 B>A|F2 E2 EF|A2 A2 B>e|c4 BA|
B2 B2 A>B|c2 e2 ce|f2 e2 Bc|e4 ce|
f2 a2 ag|f2 e2 Bc|e2 A2 G2|F4 E>F|
A2 c3 e|f>e c2 (3ABc|B2 A2 AF|1 E4:|2 A6||

